dist/img/expert/5.svg

<svg width="212" height="41" viewBox="0 0 212 41" fill="none" xmlns="http://www.w3.org/2000/svg">
<path d="M11.3047 13.3477C14.2995 15.5938 19.3451 17.8724 26.4414 20.1836C30.3477 21.0625 32.3008 21.8763 32.3008 22.625C31.7799 24.5456 27.8737 26.8242 20.582 29.4609C18.5638 30.2422 16.6432 31.056 14.8203 31.9023C10.0677 33.1393 6.29167 35.418 3.49219 38.7383C1.18099 40.2031 0.0416667 39.7148 0.0742188 37.2734C2.74349 34.0833 5.51042 31.8047 8.375 30.4375L17.7988 26.9707C20.0775 26.4499 21.6562 25.6523 22.5352 24.5781V24.0898C22.1445 22.6901 20.5658 21.4694 17.7988 20.4277C15.0645 19.3535 12.8835 18.4095 11.2559 17.5957C9.62826 16.7493 8.55404 15.5449 8.0332 13.9824C7.54492 12.3874 8.63542 12.1758 11.3047 13.3477ZM93.1406 3.77734C89.2669 3.67969 85.1491 3.85872 80.7871 4.31445C76.1322 4.54232 72.7793 6.02344 70.7285 8.75781L65.3574 16.0332C68.0267 15.6751 71.2331 15.903 74.9766 16.7168C78.7526 17.498 80.6406 19.8581 80.6406 23.7969C76.832 30.2747 70.875 35.0111 62.7695 38.0059L57.252 39.373C52.1738 39.5033 49.1139 38.4453 48.0723 36.1992C47.9095 34.4414 48.9023 33.4811 51.0508 33.3184C52.2878 35.3366 54.5664 36.2155 57.8867 35.9551C62.151 35.1738 65.3574 33.9531 67.5059 32.293C71.6725 29.8516 74.3743 27.6868 75.6113 25.7988C76.8809 23.9108 77.1901 22.446 76.5391 21.4043C75.888 20.3626 73.9512 19.5814 70.7285 19.0605L65.4062 19.0117L61.8906 21.8926C60.3607 22.0553 59.3678 21.4206 58.9121 19.9883V18.0352C62.6556 12.6641 66.9362 7.4069 71.7539 2.26367C72.9583 1.12435 81.0475 0.66862 96.0215 0.896484C96.0866 2.23112 95.1263 3.19141 93.1406 3.77734ZM118.385 15.252C123.3 12.4199 124.96 12.5339 123.365 15.5938C121.445 17.4167 115.634 21.7135 105.934 28.4844C104.827 30.6003 104.273 32.2279 104.273 33.3672C104.273 34.474 105.738 34.474 108.668 33.3672C111.63 32.2279 115.423 29.8841 120.045 26.3359C121.021 26.4661 121.396 27.2148 121.168 28.582C120.973 29.9167 118.873 31.6094 114.869 33.6602C110.898 35.6784 107.675 36.834 105.201 37.127C102.76 37.3874 101.425 37.1432 101.197 36.3945C101.002 35.6133 101.197 33.6764 101.783 30.584L85.1816 39.0801C83.3913 39.4707 82.5612 38.7708 82.6914 36.9805C85.0352 30.763 86.6953 27.5729 87.6719 27.4102C89.5924 27.2799 90.1458 28.3379 89.332 30.584C86.3698 34.4577 86.3698 35.5156 89.332 33.7578C101.572 27.8984 111.256 21.7298 118.385 15.252ZM146.021 15.7402C148.788 14.5358 151.507 14.1615 154.176 14.6172C156.845 15.0404 158.196 16.8307 158.229 19.9883C158.229 24.4479 149.537 27.6217 132.154 29.5098C128.508 30.5514 126.718 31.821 126.783 33.3184C126.881 34.8158 127.548 35.7272 128.785 36.0527C130.055 36.3457 131.389 36.5573 132.789 36.6875C134.221 36.7852 139.576 35.9225 148.854 34.0996C158.131 32.2441 162.704 31.6094 162.574 32.1953C162.477 32.7487 158.082 34.1484 149.391 36.3945C140.732 38.6081 133.635 39.5033 128.102 39.0801C124.391 38.0384 122.91 35.9388 123.658 32.7812L124.049 30.584H120.777C120.517 29.8027 121.07 29.0866 122.438 28.4355C123.837 27.752 131.699 23.5202 146.021 15.7402ZM140.309 22.0879C130.185 26.4173 130.673 27.5241 141.773 25.4082C150.725 23.1947 155.201 21.2904 155.201 19.6953C155.201 18.1003 153.248 17.5143 149.342 17.9375L140.309 22.0879ZM162.574 14.666L209.547 15.5938C210.816 16.4727 210.702 17.3841 209.205 18.3281C207.708 19.2721 202.19 19.6139 192.652 19.3535L184.498 19.1582C182.415 19.2884 176.995 18.735 168.238 17.498C170.745 20.1999 171.998 24.5781 171.998 30.6328C179.127 25.0013 184.124 22.1855 186.988 22.1855C188.16 22.2832 188.486 22.9017 187.965 24.041L167.311 39.0801C166.008 39.0475 165.374 38.429 165.406 37.2246L168.238 33.4648C168.238 24.7083 165.732 18.7513 160.719 15.5938C160.621 14.7799 161.24 14.4707 162.574 14.666Z" fill="#3A4143"/>
</svg>

<svg width="212" height="41" viewBox="0 0 212 41" fill="none" xmlns="http://www.w3.org/2000/svg"><path d="M11.305 13.348c2.995 2.246 8.04 4.524 15.136 6.836 3.907.878 5.86 1.692 5.86 2.441-.521 1.92-4.427 4.2-11.719 6.836a95.935 95.935 0 00-5.762 2.441c-4.752 1.237-8.528 3.516-11.328 6.836-2.311 1.465-3.45.977-3.418-1.465 2.67-3.19 5.436-5.468 8.301-6.836l9.424-3.466c2.279-.521 3.857-1.319 4.736-2.393v-.488c-.39-1.4-1.97-2.62-4.736-3.662-2.734-1.075-4.915-2.018-6.543-2.832-1.628-.847-2.702-2.051-3.223-3.614-.488-1.595.602-1.806 3.272-.634zm81.836-9.57c-3.874-.098-7.992.08-12.354.536-4.655.228-8.008 1.71-10.059 4.444l-5.37 7.275c2.669-.358 5.875-.13 9.619.684 3.776.781 5.664 3.141 5.664 7.08-3.809 6.478-9.766 11.214-17.872 14.209l-5.517 1.367c-5.078.13-8.138-.928-9.18-3.174-.163-1.758.83-2.718 2.979-2.88 1.237 2.018 3.515 2.896 6.836 2.636 4.264-.781 7.47-2.002 9.619-3.662 4.166-2.441 6.868-4.606 8.105-6.494 1.27-1.888 1.58-3.353.928-4.395-.651-1.041-2.588-1.823-5.81-2.343l-5.323-.05-3.515 2.882c-1.53.162-2.523-.472-2.979-1.905v-1.953c3.744-5.37 8.024-10.628 12.842-15.771C72.958 1.124 81.047.669 96.02.896c.066 1.335-.895 2.295-2.88 2.881zm25.244 11.474c4.915-2.832 6.575-2.718 4.98.342-1.92 1.823-7.731 6.12-17.431 12.89-1.107 2.116-1.661 3.744-1.661 4.883 0 1.107 1.465 1.107 4.395 0 2.962-1.14 6.755-3.483 11.377-7.031.976.13 1.351.879 1.123 2.246-.195 1.335-2.295 3.027-6.299 5.078-3.971 2.018-7.194 3.174-9.668 3.467-2.441.26-3.776.016-4.004-.733-.195-.78 0-2.718.586-5.81L85.182 39.08c-1.79.39-2.62-.31-2.49-2.1 2.343-6.217 4.003-9.407 4.98-9.57 1.92-.13 2.474.928 1.66 3.174-2.962 3.874-2.962 4.932 0 3.174 12.24-5.86 21.924-12.028 29.053-18.506zm27.636.488c2.767-1.204 5.486-1.579 8.155-1.123 2.669.423 4.02 2.214 4.053 5.371 0 4.46-8.692 7.634-26.075 9.522-3.646 1.041-5.436 2.311-5.371 3.808.098 1.498.765 2.41 2.002 2.735 1.27.293 2.604.504 4.004.635 1.432.097 6.787-.766 16.065-2.588 9.277-1.856 13.85-2.49 13.72-1.905-.097.554-4.492 1.953-13.183 4.2-8.659 2.213-15.756 3.108-21.289 2.685-3.711-1.042-5.192-3.141-4.444-6.299l.391-2.197h-3.272c-.26-.781.293-1.497 1.661-2.148 1.399-.684 9.261-4.916 23.583-12.696zm-5.712 6.348c-10.124 4.33-9.636 5.436 1.464 3.32 8.952-2.213 13.428-4.118 13.428-5.713 0-1.595-1.953-2.18-5.859-1.758l-9.033 4.15zm22.265-7.422l46.973.928c1.269.879 1.155 1.79-.342 2.734s-7.015 1.286-16.553 1.026l-8.154-.196c-2.083.13-7.503-.423-16.26-1.66 2.507 2.702 3.76 7.08 3.76 13.135 7.129-5.632 12.126-8.447 14.99-8.447 1.172.097 1.498.716.977 1.855l-20.654 15.04c-1.303-.034-1.937-.652-1.905-1.856l2.832-3.76c0-8.757-2.506-14.714-7.519-17.871-.098-.814.521-1.123 1.855-.928z" fill="#3A4143"/></svg>
